X:1
T:Dedekam, CMD
T:Sophie Hedvig Dedekam (1820-1894)
T:Dedekam, CMD
T:Public Domain
C:Sophie Hedvig Dedekam (1820-1894)
Z:Public Domain
%%score ( 1 2 ) ( 3 4 )
L:1/8
M:6/4
K:Eb
V:1 treble 
V:2 treble 
V:3 bass 
V:4 bass 
V:1
 [GB]2 | [EG]4 [EG]2 [DF]4 [DF]2 | E4 [CE]2 [B,E]4 [B,E]2 | [B,F]4 [B,F]2 B,4 B,2 | %4
 [B,G]6- [B,G]4 [EB]2 | [EG]4 [EG]2 [DF]4 [DF]2 | [CE]4 [CE]2 [CF]4 [CF]2 | %7
 [B,E]4 [B,E]2 (D2 C2) [B,D]2 | [B,E]6- [B,E]4 [EB]2 | [Fd]4 [Fd]2 (d2 c2) [AB]2 | %10
 [GB]4 [Ge]2 [GB]4 [GB]2 | [FA]4 [FA]2 [EG]4 [EG]2 | [DF]6- [DF]4 [DB]2 | [EB]4 [EB]2 [DA]4 [DA]2 | %14
 [EG]4 [EG]2 (F2 A2) [CF]2 | [B,E]4 [B,E]2 (D2 C2) [B,D]2 | [B,E]6- [B,E]4 |] %17
V:2
 x2 | x12 | E4 x8 | x6 B,4 B,2 | x12 | x12 | x12 | x6 A,4 x2 | x12 | x6 A4 x2 | x12 | x12 | x12 | %13
 x12 | x6 C4 x2 | x6 B,4 x2 | x10 |] %17
V:3
 [E,B,]2 | [E,B,]4 [E,B,]2 [A,B,]4 [A,B,]2 | [G,B,]4 A,2 [E,G,]4 [E,G,]2 | %3
 [B,,D,]4 [B,,D,]2 [D,F,]4 [D,A,]2 | [E,G,]6- [E,G,]4 [E,G,]2 | %5
 [E,B,]4 [E,B,]2 [=B,,A,]4 [B,,A,]2 | [C,G,]4 [C,G,]2 [A,,F,]4 [A,,F,]2 | %7
 [B,,G,]4 [B,,G,]2 [B,,F,]4 [B,,A,]2 | [E,G,]6- [E,G,]4 [E,G,]2 | %9
 [B,,B,]4 [B,,B,]2 [B,,B,]4 [D,B,]2 | [E,B,]4 [E,B,]2 [E,E]4 [E,B,]2 | %11
 [D,B,]4 [D,B,]2 [E,B,]4 [E,B,]2 | [B,,B,]6- [B,,B,]4 [B,,A,]2 | %13
 [E,G,]4 [E,G,]2 [=B,,F,]4 [B,,F,]2 | [C,E,]4 [C,G,]2 [A,,A,]4 [A,,A,]2 | %15
 [B,,G,]4 [B,,G,]2 (F,2 E,2) [B,,F,]2 | [E,G,]6- [E,G,]4 |] %17
V:4
 x2 | x12 | x4 A,2 x6 | x12 | x12 | x12 | x12 | x12 | x12 | x12 | x12 | x12 | x12 | x12 | x12 | %15
 x6 B,,4 x2 | x10 |] %17

